assets/img/ticon6.svg

<svg width="64" height="64" viewBox="0 0 64 64" fill="none" xmlns="http://www.w3.org/2000/svg">
<path d="M32.6572 47.3601L26.0817 52.4801L31.9997 62.0801L38.5752 53.7601L32.6572 47.3601Z" fill="#FFC940"/>
<path d="M14.246 28.16L19.5064 28.8L18.8489 16L23.4517 8.32003L31.9999 5.76003L40.5481 8.32003L45.1509 15.36L43.8358 29.44H47.7811L50.4113 26.24L49.7538 16.64L45.8085 7.68003L39.233 2.56003L30.0272 1.28003L21.4791 3.84003L15.5611 11.52L13.5884 19.84L14.246 28.16Z" fill="#FFC940"/>
<path d="M49.2893 45.4579L43.1851 43.4779L40.9937 39.212C42.9679 37.2563 44.3386 34.6685 44.8008 31.9694L45.0741 30.375H47.4114C49.5358 30.375 51.2642 28.6927 51.2642 26.625V18.75C51.2642 8.41125 42.6223 0 32 0C21.3505 0 12.7358 8.38713 12.7358 18.75V26.625C12.7358 28.2545 13.8096 29.644 15.3044 30.16V31.625C15.3044 33.6927 17.0327 35.375 19.1572 35.375H20.2851C20.8418 36.5521 21.5624 37.6424 22.4393 38.6217C22.6212 38.8252 22.8109 39.0225 23.0052 39.2144L20.815 43.4779L14.7106 45.458C7.61306 47.7615 2.46155 55.0339 2.46155 62.75C2.46155 63.4404 3.03652 64 3.74583 64H60.2542C60.9634 64 61.5385 63.4404 61.5385 62.75C61.5385 55.0339 56.3871 47.7615 49.2893 45.4579ZM48.6957 26.625C48.6957 27.3142 48.1195 27.875 47.4114 27.875H45.4513C45.7778 25.4137 45.9953 22.7946 46.0828 20.215C46.0854 20.1423 46.0874 20.0715 46.0897 20H48.6957V26.625ZM16.5886 27.875C15.8805 27.875 15.3044 27.3142 15.3044 26.625V20H17.9112C17.9154 20.1304 17.9199 20.2614 17.9249 20.3932C17.9251 20.3977 17.9253 20.4021 17.9254 20.4066C18.0153 22.9156 18.2301 25.4679 18.5491 27.8749L16.5886 27.875ZM19.1572 32.875C18.449 32.875 17.8729 32.3143 17.8729 31.625V30.375H18.9258L19.1991 31.9699C19.2512 32.273 19.3153 32.575 19.3894 32.875H19.1572ZM17.8751 17.5H15.3532C16.0036 9.12237 23.1869 2.5 32 2.5C40.774 2.5 47.9888 9.1215 48.6467 17.5H46.125C46.0326 10.5966 40.2568 5 33.1496 5H30.8507C23.7436 5 17.9674 10.5966 17.8751 17.5ZM30.8506 7.5H33.1494C38.9042 7.5 43.5619 12.0814 43.5585 17.6763C43.5585 18.0696 43.5553 18.4121 43.5485 18.7237C43.5485 18.7277 43.5484 18.7319 43.5484 18.736L41.942 18.5126C37.578 17.9061 33.4575 15.9009 30.3396 12.8661C30.0986 12.6318 29.772 12.5 29.4314 12.5C25.9824 12.5 22.6808 14.0295 20.4982 16.6135C21.0361 11.5236 25.457 7.5 30.8506 7.5ZM22.052 32.875C21.4091 30.7934 20.6734 24.6684 20.5108 20.7434L22.2393 18.5001C23.8268 16.4406 26.2966 15.161 28.9239 15.0141C32.3808 18.2161 36.8529 20.3306 41.5788 20.9874L43.4695 21.2504C43.3432 23.861 43.0849 26.4807 42.7149 28.8901L42.7145 28.8926C42.5969 29.6673 42.5041 30.1657 42.2673 31.5581C41.5872 35.5287 38.5432 39.1194 34.5248 40.0973C32.871 40.4991 31.1288 40.499 29.4759 40.0973C26.9668 39.4868 24.6661 37.797 23.1814 35.375H25.7995C26.3297 36.8299 27.7571 37.875 29.4314 37.875H32C34.1287 37.875 35.8529 36.197 35.8529 34.125C35.8529 32.0573 34.1245 30.375 32 30.375H29.4314C27.7199 30.375 26.3135 31.451 25.7973 32.875H22.052ZM29.3234 42.627C30.2043 42.8076 31.1024 42.9 32 42.9C32.7026 42.9 33.4054 42.8427 34.1002 42.7317L31.8309 45.0676L29.3234 42.627ZM30.0652 46.8849L25.9918 51.0776C24.8703 48.9884 23.9067 46.814 23.1164 44.588L24.6461 41.6102L30.0652 46.8849ZM39.1362 41.1867L40.8834 44.5879C40.0918 46.8176 39.1279 48.9927 38.0076 51.0795L33.6477 46.836L39.1362 41.1867ZM28.1472 34.125C28.1472 33.4349 28.7223 32.875 29.4314 32.875H32C32.7082 32.875 33.2843 33.4357 33.2843 34.125C33.2843 34.8153 32.7091 35.375 32 35.375H29.4314C28.7233 35.375 28.1472 34.8143 28.1472 34.125ZM5.08148 61.5C5.59044 55.3076 9.82459 49.6791 15.5229 47.8296L20.929 46.0761C21.9194 48.7418 23.1464 51.3326 24.5844 53.7936C24.5869 53.7979 24.5892 53.8021 24.5916 53.8062C25.6423 55.6049 26.825 57.3628 28.1071 59.0314L29.687 61.5H5.08148ZM32 60.3857L30.2583 57.6641C30.2387 57.6336 30.2179 57.604 30.1959 57.5752C29.1558 56.225 28.1857 54.8129 27.3021 53.3675L31.8822 48.6533L36.7083 53.3505C35.8188 54.8064 34.8453 56.2244 33.8044 57.575C33.7415 57.6566 33.8308 57.528 32 60.3857ZM34.313 61.5L35.8928 59.0315C37.1805 57.3565 38.3716 55.5847 39.4328 53.765C39.4392 53.754 39.4452 53.7427 39.4517 53.7317L39.454 53.7277C40.8737 51.2902 42.0879 48.7219 43.071 46.0761L48.4769 47.8296C54.1754 49.6791 58.4096 55.3076 58.9185 61.5H34.313Z" fill="black"/>
</svg>

<svg width="64" height="64" fill="none" xmlns="http://www.w3.org/2000/svg"><path d="M32.657 47.36l-6.575 5.12L32 62.08l6.575-8.32-5.918-6.4zm-18.411-19.2l5.26.64L18.85 16l4.603-7.68L32 5.76l8.548 2.56 4.603 7.04-1.315 14.08h3.945l2.63-3.2-.657-9.6-3.945-8.96-6.576-5.12-9.206-1.28-8.548 2.56-5.918 7.68-1.973 8.32.658 8.32z" fill="#FFC940"/><path d="M49.29 45.458l-6.105-1.98-2.191-4.266c1.974-1.956 3.345-4.544 3.807-7.243l.273-1.594h2.337c2.125 0 3.853-1.682 3.853-3.75V18.75C51.264 8.411 42.622 0 32 0 21.35 0 12.736 8.387 12.736 18.75v7.875c0 1.63 1.074 3.019 2.568 3.535v1.465c0 2.068 1.729 3.75 3.853 3.75h1.128a13.523 13.523 0 002.72 3.84l-2.19 4.263-6.104 1.98C7.613 47.761 2.46 55.034 2.46 62.75c0 .69.576 1.25 1.285 1.25h56.508c.71 0 1.285-.56 1.285-1.25 0-7.716-5.152-14.989-12.25-17.292zm-.594-18.833c0 .69-.576 1.25-1.285 1.25h-1.96c.327-2.461.544-5.08.632-7.66L46.09 20h2.606v6.625zm-32.107 1.25c-.708 0-1.285-.56-1.285-1.25V20h2.607l.014.393v.014c.09 2.509.305 5.06.624 7.468h-1.96zm2.568 5c-.708 0-1.284-.56-1.284-1.25v-1.25h1.053l.273 1.595c.052.303.116.605.19.905h-.232zM17.875 17.5h-2.522c.65-8.378 7.834-15 16.647-15 8.774 0 15.989 6.621 16.647 15h-2.522C46.033 10.597 40.257 5 33.15 5h-2.3c-7.106 0-12.883 5.597-12.975 12.5zm12.976-10h2.298c5.755 0 10.413 4.581 10.41 10.176 0 .394-.004.736-.01 1.048v.012l-1.607-.223c-4.364-.607-8.484-2.612-11.602-5.647a1.303 1.303 0 00-.909-.366c-3.449 0-6.75 1.53-8.933 4.113.538-5.09 4.959-9.113 10.353-9.113zm-8.799 25.375c-.643-2.082-1.379-8.207-1.541-12.132l1.728-2.243c1.588-2.06 4.058-3.339 6.685-3.486 3.457 3.202 7.929 5.317 12.655 5.973l1.89.263a74.922 74.922 0 01-.754 7.64v.003c-.118.774-.21 1.273-.448 2.665-.68 3.97-3.724 7.561-7.742 8.54a10.726 10.726 0 01-5.05 0c-2.508-.611-4.809-2.301-6.294-4.723H25.8c.53 1.455 1.958 2.5 3.632 2.5H32c2.129 0 3.853-1.678 3.853-3.75 0-2.068-1.729-3.75-3.853-3.75h-2.569c-1.711 0-3.117 1.076-3.634 2.5h-3.745zm7.271 9.752c.881.18 1.78.273 2.677.273.703 0 1.405-.057 2.1-.168l-2.27 2.336-2.507-2.441zm.742 4.258l-4.073 4.193a46.95 46.95 0 01-2.876-6.49l1.53-2.978 5.42 5.275zm9.071-5.698l1.747 3.4a46.951 46.951 0 01-2.875 6.492l-4.36-4.243 5.488-5.65zm-10.989-7.062c0-.69.575-1.25 1.284-1.25H32c.708 0 1.284.56 1.284 1.25s-.575 1.25-1.284 1.25h-2.569c-.708 0-1.284-.56-1.284-1.25zM5.081 61.5c.51-6.192 4.744-11.82 10.442-13.67l5.406-1.754a49.483 49.483 0 003.655 7.718l.008.012a50.01 50.01 0 003.515 5.225l1.58 2.469H5.081zM32 60.386l-1.742-2.722c-.02-.03-.04-.06-.062-.089a47.564 47.564 0 01-2.894-4.208l4.58-4.714 4.826 4.697a47.534 47.534 0 01-2.904 4.225c-.063.082.027-.047-1.804 2.81zm2.313 1.114l1.58-2.468a50.003 50.003 0 003.54-5.267l.019-.033.002-.004a49.449 49.449 0 003.617-7.652l5.406 1.754c5.698 1.85 9.933 7.478 10.442 13.67H34.313z" fill="#000"/></svg>
